X:0012
T:The Queen of Hearts.
M:2/4
L:1/8
Q:1/4=104
I: :: ::
%% D ^F  G  A  B  c ^c  d  e  f ^f  g
Z:Jack Campin * www.campin.me.uk * 2009
K:G
d>edc|BGGB|cBAG|FDDA |BGGB|cAAg|fde^c            |d2d2:|
FDFA |dAAc|BGBd|gdd=f|ecAc|dBGc|B/d/B/G/ A/c/A/F/|G2G2:|
<end>
<start>
